src/assets/img/sustainers/quira-hero.svg

<svg width="200" height="68" viewBox="0 0 200 68" fill="none" xmlns="http://www.w3.org/2000/svg">
<path fill-rule="evenodd" clip-rule="evenodd" d="M42.1588 40.9631L35.3985 33.8024L24.5497 22.3111C26.6388 20.6792 29.2203 19.7133 32.0153 19.7133C38.972 19.7133 44.6112 25.6867 44.6112 33.0548C44.6112 36.0152 43.6994 38.7496 42.1588 40.9631ZM32.0153 46.3962C25.0591 46.3962 19.4199 40.4235 19.4199 33.0548C19.4199 30.0944 20.3317 27.3599 21.8723 25.147L39.4814 43.7986C37.3923 45.4305 34.8108 46.3962 32.0153 46.3962ZM46.4875 45.5483L44.98 43.9514C47.2251 40.9586 48.5693 37.1741 48.5693 33.0548C48.5693 23.3709 41.1582 15.5208 32.0153 15.5208C28.1269 15.5208 24.5535 16.9447 21.7285 19.3228L17.6023 14.952L14.9254 17.7881L19.0511 22.1581C16.806 25.1509 15.4618 28.9354 15.4618 33.0548C15.4618 42.7388 22.8729 50.5895 32.0153 50.5895C35.9042 50.5895 39.4771 49.165 42.3026 46.7875L46.4282 51.1577L49.1057 48.3216L46.4875 45.5483ZM80.0539 16.5676H76.146V37.8562C76.146 42.5884 72.4968 46.4249 67.9948 46.4249C63.493 46.4249 59.8438 42.5884 59.8438 37.8562V16.5676H55.9359V37.8562C55.9359 44.8576 61.3348 50.5328 67.9948 50.5328C74.655 50.5328 80.0539 44.8576 80.0539 37.8562V16.5676ZM100.423 45.5369H109.038V49.6447H100.423H96.515H87.9003V45.5369H96.515V21.976C96.515 21.2304 95.94 20.626 95.2306 20.626H87.9003V16.5184H95.2306C98.0984 16.5184 100.423 18.9617 100.423 21.976V45.5369ZM127.969 19.7779C132.463 19.7779 136.107 23.6166 136.107 28.3518H140.008C140.008 21.3464 134.618 15.6673 127.969 15.6673C124.563 15.6673 121.488 17.1571 119.298 19.552C118.452 17.7463 116.687 16.5042 114.647 16.5042H111.526V20.6149H114.647C115.355 20.6149 115.929 21.2196 115.929 21.9659V45.5442V49.6548H119.83L119.831 28.3518C119.831 23.6166 123.475 19.7779 127.969 19.7779ZM164.094 46.2054C170.657 46.2054 176.378 40.6481 176.378 33.1416C176.378 25.6349 170.657 20.0785 164.094 20.0785C157.533 20.0785 151.812 25.6349 151.812 33.1416C151.812 40.6481 157.533 46.2054 164.094 46.2054ZM176.751 44.3979C173.712 48.1839 169.17 50.5878 164.094 50.5878C154.946 50.5878 147.529 42.7769 147.529 33.1416C147.529 23.5061 154.946 15.6951 164.094 15.6951C169.208 15.6951 173.779 18.1344 176.818 21.9682C177.215 19.3626 179.36 17.3725 181.946 17.3725H185.075V21.4911H181.946C181.237 21.4911 180.661 22.097 180.661 22.8447V46.4687V50.5874H176.751V46.4687V44.3979Z" fill="#1B1D22"/>
</svg>

<svg xmlns="http://www.w3.org/2000/svg" width="200" height="68" fill="none"><path fill="#1B1D22" fill-rule="evenodd" d="m42.159 40.963-6.76-7.16-10.85-11.492c2.09-1.632 4.671-2.598 7.466-2.598 6.957 0 12.596 5.974 12.596 13.342 0 2.96-.912 5.695-2.452 7.908m-10.144 5.433c-6.956 0-12.595-5.973-12.595-13.341 0-2.96.912-5.695 2.452-7.908l17.61 18.652c-2.09 1.632-4.671 2.597-7.467 2.597m14.472-.848-1.507-1.597c2.245-2.992 3.59-6.777 3.59-10.896 0-9.684-7.412-17.534-16.555-17.534-3.888 0-7.462 1.424-10.286 3.802l-4.127-4.371-2.677 2.836 4.126 4.37c-2.245 2.993-3.59 6.777-3.59 10.897 0 9.684 7.412 17.535 16.554 17.535 3.89 0 7.462-1.425 10.288-3.803l4.125 4.37 2.678-2.835zm33.567-28.98h-3.908v21.288c0 4.732-3.65 8.569-8.151 8.569-4.502 0-8.151-3.837-8.151-8.569V16.568h-3.908v21.288c0 7.002 5.399 12.677 12.059 12.677s12.059-5.675 12.059-12.677zm20.369 28.969h8.615v4.108H87.9v-4.108h8.615V21.976c0-.746-.575-1.35-1.284-1.35H87.9v-4.108h7.33c2.867 0 5.192 2.444 5.192 5.458zm27.546-25.76c4.494 0 8.138 3.84 8.138 8.575h3.901c0-7.006-5.39-12.685-12.039-12.685-3.406 0-6.481 1.49-8.671 3.885-.846-1.806-2.611-3.048-4.651-3.048h-3.121v4.11h3.121c.708 0 1.282.606 1.282 1.352v27.688h3.901l.001-21.302c0-4.735 3.644-8.574 8.138-8.574m36.125 26.428c6.563 0 12.284-5.557 12.284-13.063s-5.721-13.064-12.284-13.064c-6.561 0-12.282 5.557-12.282 13.064s5.721 13.063 12.282 13.063m12.657-1.807c-3.039 3.786-7.581 6.19-12.657 6.19-9.148 0-16.565-7.811-16.565-17.446s7.417-17.447 16.565-17.447c5.114 0 9.685 2.44 12.724 6.273.397-2.605 2.542-4.596 5.128-4.596h3.129v4.12h-3.129c-.709 0-1.285.605-1.285 1.353v27.742h-3.91v-6.189" clip-rule="evenodd"/></svg>
